GWA/img/icons/email.svg

<svg width="36" height="36" viewBox="0 0 36 36" fill="none" xmlns="http://www.w3.org/2000/svg">
<rect width="36" height="36" rx="8" fill="#D4B982"/>
<path fill-rule="evenodd" clip-rule="evenodd" d="M22.9394 9C24.2804 9 25.5704 9.53 26.5194 10.481C27.4694 11.43 28.0004 12.71 28.0004 14.05V21.95C28.0004 24.74 25.7304 27 22.9394 27H13.0604C10.2694 27 8.0004 24.74 8.0004 21.95V14.05C8.0004 11.26 10.2594 9 13.0604 9H22.9394ZM24.5304 15.54L24.6104 15.46C24.8494 15.17 24.8494 14.75 24.5994 14.46C24.4604 14.311 24.2694 14.22 24.0704 14.2C23.8604 14.189 23.6604 14.26 23.5094 14.4L19.0004 18C18.4204 18.481 17.5894 18.481 17.0004 18L12.5004 14.4C12.1894 14.17 11.7594 14.2 11.5004 14.47C11.2304 14.74 11.2004 15.17 11.4294 15.47L11.5604 15.6L16.1104 19.15C16.6704 19.59 17.3494 19.83 18.0604 19.83C18.7694 19.83 19.4604 19.59 20.0194 19.15L24.5304 15.54Z" fill="white"/>
</svg>

<svg width="36" height="36" fill="none" xmlns="http://www.w3.org/2000/svg"><rect width="36" height="36" rx="8" fill="#D4B982"/><path fill-rule="evenodd" clip-rule="evenodd" d="M22.94 9A5.057 5.057 0 0128 14.05v7.9c0 2.79-2.27 5.05-5.06 5.05h-9.88A5.057 5.057 0 018 21.95v-7.9A5.05 5.05 0 0113.06 9h9.88zm1.59 6.54l.08-.08a.773.773 0 00-.01-1 .84.84 0 00-.53-.26.76.76 0 00-.56.2L19 18a1.566 1.566 0 01-2 0l-4.5-3.6a.76.76 0 00-1 .07c-.27.27-.3.7-.07 1l.13.13 4.55 3.55a3.143 3.143 0 003.91 0l4.51-3.61z" fill="#fff"/></svg>
